docs/images/kaenon.svg

<svg height="49" viewBox="0 0 406 49" width="406" xmlns="http://www.w3.org/2000/svg"><g fill="#373737" fill-rule="evenodd" transform="translate(0 1)"><path d="m330.193 40.774c9.857 0 16.839-7.392 16.839-16.975 0-9.581-6.982-16.973-16.839-16.973s-16.838 7.392-16.838 16.973c0 9.583 6.981 16.975 16.838 16.975m0-4.106c-7.392 0-12.184-5.796-12.184-12.869 0-7.071 4.792-12.866 12.184-12.866 7.393 0 12.185 5.795 12.185 12.866 0 7.073-4.792 12.869-12.185 12.869"/><path d="m135.69 22.938 14.702-13.798c.744-.702 2.205-1.276 3.246-1.276l5.045-.017-17.571 15.346 18.035 16.99-4.706-.014c-1.041 0-2.472-.6-3.182-1.334l-13.88-13.485c-.71-.734-1.635-1.698-1.739-1.698l.069 14.693c0 1.004-.852 1.824-1.892 1.824l-2.744.014v-30.495c0-1.003.852-1.824 1.894-1.824l2.742-.017z"/><path d="m197.877 38.478c.391.931 1.562 1.692 2.603 1.692l3.176.015-13.736-30.643c-.41-.923-.983-1.678-2.024-1.678h-1.228c-1.04 0-1.575.751-1.996 1.67l-14.12 30.651 3.53-.015c1.04 0 2.209-.763 2.595-1.695l2.729-6.29h15.896zm-4.26-10.087h-12.713l6.376-14.959z"/><path d="m224.883 36.154 16.943-.183c1.041 0 1.893.82 1.893 1.824l.025 2.374h-21.555c-1.041 0-1.893-.819-1.893-1.824v-28.657c0-1.004.852-1.825 1.893-1.825h21.267l.007 2.42c0 1.003-.852 1.824-1.891 1.824l-16.689-.136-.024 9.627h16.556v3.97h-16.525z"/><path d="m270.074 12.932.38 25.413c0 1.004-.852 1.825-1.892 1.825l-3.029.002v-32.304l4.543-.004c1.04 0 2.365.682 2.945 1.517l17.018 25.811-.38-25.504c0-1.003.852-1.824 1.893-1.824l3.076.004v32.304l-4.402-.002c-1.041 0-2.37-.68-2.954-1.512z"/><path d="m370.435 13.028.379 25.414c0 1.004-.851 1.826-1.891 1.826l-3.03.002v-32.305l4.543-.004c1.041 0 2.367.684 2.946 1.517l17.017 25.812-.379-25.503c0-1.005.851-1.826 1.892-1.826l3.076.004v32.305l-4.401-.002c-1.041 0-2.369-.68-2.953-1.511z"/><path d="m403.188 9.74h.291c.333 0 .615-.121.615-.432 0-.223-.16-.444-.615-.444-.13 0-.22.01-.291.021zm0 1.397h-.403v-2.525c.213-.029.412-.06.715-.06.383 0 .634.08.785.192.151.11.231.28.231.523 0 .333-.221.532-.493.613v.021c.221.039.373.242.422.612.062.393.121.545.161.624h-.421c-.061-.079-.122-.311-.171-.644-.061-.321-.222-.441-.544-.441h-.282zm.422-3.229c-.996 0-1.809.855-1.809 1.913 0 1.075.813 1.92 1.82 1.92 1.007.01 1.812-.845 1.812-1.91 0-1.068-.805-1.923-1.812-1.923zm.011-.35c1.237 0 2.224 1.004 2.224 2.263 0 1.277-.987 2.273-2.235 2.273-1.236 0-2.244-.996-2.244-2.273 0-1.259 1.008-2.263 2.244-2.263z"/><path d="m.733 39.3c-.00000002-2.4000008 7.9000001-22.9999998 24.6-33.8 16.6999976-10.80000052 83.4-4.1 89.2 1.1-.600003 1.99999998-14.9 29.7-25.3999985 34.2000007-38.4000015 13.7000008-84.8000016 1.3999978-88.4000015-1.5000007zm31.768-30.278c5.186-1.768 11.763-3.035 18.965-3.831-12.935 6.682-25.861 17.007-30.582 24.902 13.377-1.265 30.919-11.588 43.146-25.79 10.145-.298 20.611.329 29.662 1.833-11.832.037-21.579 5.69-39.502 16.177-14.597 8.521-26.82 12.389-40.681 11.293 3.954-10.067 14.57-20.715 18.992-24.584zm54.683 25.069c-20.511 5.105-52.816 5.472-66.57 1.967 22.261.845 36.07-11.412 47.058-12.23 1.697 7.08 11.05 10.228 19.512 10.263z"/></g></svg>

<?xml version="1.0" encoding="UTF-8" standalone="no"?>
<svg width="406px" height="49px" viewBox="0 0 406 49" version="1.1" xmlns="http://www.w3.org/2000/svg" xmlns:xlink="http://www.w3.org/1999/xlink" xmlns:sketch="http://www.bohemiancoding.com/sketch/ns">
    <title>Untitled 18</title>
    <description>Created with Sketch (http://www.bohemiancoding.com/sketch)</description>
    <defs></defs>
    <g id="Page-1" stroke="none" stroke-width="1" fill="none" fill-rule="evenodd" sketch:type="MSPage">
        <g id="kaenon" sketch:type="MSLayerGroup" transform="translate(0.000000, 1.000000)" fill="#373737">
            <path d="M330.193,40.774 C340.05,40.774 347.032,33.382 347.032,23.799 C347.032,14.218 340.05,6.826 330.193,6.826 C320.336,6.826 313.355,14.218 313.355,23.799 C313.355,33.382 320.336,40.774 330.193,40.774 M330.193,36.668 C322.801,36.668 318.009,30.872 318.009,23.799 C318.009,16.728 322.801,10.933 330.193,10.933 C337.586,10.933 342.378,16.728 342.378,23.799 C342.378,30.872 337.586,36.668 330.193,36.668" id="Fill-1" sketch:type="MSShapeGroup"></path>
            <path d="M135.69,22.938 L150.392,9.14 C151.136,8.438 152.597,7.864 153.638,7.864 L158.683,7.847 L141.112,23.193 L159.147,40.183 L154.441,40.169 C153.4,40.169 151.969,39.569 151.259,38.835 L137.379,25.35 C136.669,24.616 135.744,23.652 135.64,23.652 L135.709,38.345 C135.709,39.349 134.857,40.169 133.817,40.169 L131.073,40.183 L131.073,9.688 C131.073,8.685 131.925,7.864 132.967,7.864 L135.709,7.847 L135.69,22.938" id="Fill-2" sketch:type="MSShapeGroup"></path>
            <path d="M197.877,38.478 C198.268,39.409 199.439,40.17 200.48,40.17 L203.656,40.185 L189.92,9.542 C189.51,8.619 188.937,7.864 187.896,7.864 L186.668,7.864 C185.628,7.864 185.093,8.615 184.672,9.534 L170.552,40.185 L174.082,40.17 C175.122,40.17 176.291,39.407 176.677,38.475 L179.406,32.185 L195.302,32.185 L197.877,38.478 L197.877,38.478 Z M193.617,28.391 L180.904,28.391 L187.28,13.432 L193.617,28.391 L193.617,28.391 Z" id="Fill-3" sketch:type="MSShapeGroup"></path>
            <path d="M224.883,36.154 L241.826,35.971 C242.867,35.971 243.719,36.791 243.719,37.795 L243.744,40.169 L222.189,40.169 C221.148,40.169 220.296,39.35 220.296,38.345 L220.296,9.688 C220.296,8.684 221.148,7.863 222.189,7.863 L243.456,7.863 L243.463,10.283 C243.463,11.286 242.611,12.107 241.572,12.107 L224.883,11.971 L224.859,21.598 L241.415,21.598 L241.415,25.568 L224.89,25.568 L224.883,36.154" id="Fill-4" sketch:type="MSShapeGroup"></path>
            <path d="M270.074,12.932 L270.454,38.345 C270.454,39.349 269.602,40.17 268.562,40.17 L265.533,40.172 L265.533,7.868 L270.076,7.864 C271.116,7.864 272.441,8.546 273.021,9.381 L290.039,35.192 L289.659,9.688 C289.659,8.685 290.511,7.864 291.552,7.864 L294.628,7.868 L294.628,40.172 L290.226,40.17 C289.185,40.17 287.856,39.49 287.272,38.658 L270.074,12.932" id="Fill-5" sketch:type="MSShapeGroup"></path>
            <path d="M370.435,13.028 L370.814,38.442 C370.814,39.446 369.963,40.268 368.923,40.268 L365.893,40.27 L365.893,7.965 L370.436,7.961 C371.477,7.961 372.803,8.645 373.382,9.478 L390.399,35.29 L390.02,9.787 C390.02,8.782 390.871,7.961 391.912,7.961 L394.988,7.965 L394.988,40.27 L390.587,40.268 C389.546,40.268 388.218,39.588 387.634,38.757 L370.435,13.028" id="Fill-6" sketch:type="MSShapeGroup"></path>
            <path d="M403.188,9.74 L403.479,9.74 C403.812,9.74 404.094,9.619 404.094,9.308 C404.094,9.085 403.934,8.864 403.479,8.864 C403.349,8.864 403.259,8.874 403.188,8.885 L403.188,9.74 L403.188,9.74 Z M403.188,11.137 L402.785,11.137 L402.785,8.612 C402.998,8.583 403.197,8.552 403.5,8.552 C403.883,8.552 404.134,8.632 404.285,8.744 C404.436,8.854 404.516,9.024 404.516,9.267 C404.516,9.6 404.295,9.799 404.023,9.88 L404.023,9.901 C404.244,9.94 404.396,10.143 404.445,10.513 C404.507,10.906 404.566,11.058 404.606,11.137 L404.185,11.137 C404.124,11.058 404.063,10.826 404.014,10.493 C403.953,10.172 403.792,10.052 403.47,10.052 L403.188,10.052 L403.188,11.137 L403.188,11.137 Z M403.61,7.908 C402.614,7.908 401.801,8.763 401.801,9.821 C401.801,10.896 402.614,11.741 403.621,11.741 C404.628,11.751 405.433,10.896 405.433,9.831 C405.433,8.763 404.628,7.908 403.621,7.908 L403.61,7.908 L403.61,7.908 Z M403.621,7.558 C404.858,7.558 405.845,8.562 405.845,9.821 C405.845,11.098 404.858,12.094 403.61,12.094 C402.374,12.094 401.366,11.098 401.366,9.821 C401.366,8.562 402.374,7.558 403.61,7.558 L403.621,7.558 L403.621,7.558 Z" id="Fill-7" sketch:type="MSShapeGroup"></path>
            <path d="M0.733,39.3 C0.73299998,36.8999992 8.6330001,16.3000002 25.333,5.5 C42.0329976,-5.30000052 108.733,1.4 114.533,6.6 C113.932997,8.59999998 99.633,36.3 89.1330015,40.8000007 C50.733,54.5000015 4.3329999,42.1999985 0.733,39.3 Z M32.501,9.022 C37.687,7.254 44.264,5.987 51.466,5.191 C38.531,11.873 25.605,22.198 20.884,30.093 C34.261,28.828 51.803,18.505 64.03,4.303 C74.175,4.005 84.641,4.632 93.692,6.136 C81.86,6.173 72.113,11.826 54.19,22.313 C39.593,30.834 27.37,34.702 13.509,33.606 C17.463,23.539 28.079,12.891 32.501,9.022 Z M87.184,34.091 C66.673,39.196 34.368,39.563 20.614,36.058 C42.875,36.903 56.684,24.646 67.672,23.828 C69.369,30.908 78.722,34.056 87.184,34.091 Z" id="Path-73" sketch:type="MSShapeGroup"></path>
        </g>
    </g>
</svg>
